dist/img/education/MDN.svg

<svg width="150" height="151" viewBox="0 0 150 151" fill="none" xmlns="http://www.w3.org/2000/svg">
<rect width="150" height="150" fill="white"/>
<path d="M0 0V150.014H150V0H0ZM140.086 75.6416C139.437 76.8843 138.735 78.0594 138.113 79.3021C137.707 80.2021 137.024 80.9491 136.164 81.4349C135.305 81.9207 134.312 82.1199 133.332 82.0036C132.577 81.9778 131.836 82.2167 131.238 82.679C129.388 83.8946 127.51 85.0968 125.592 86.2314C124.289 86.9472 122.841 87.3601 121.356 87.4396C119.871 87.5191 118.387 87.2631 117.015 86.6907C112.434 84.9192 107.568 84.0035 102.656 83.9892C100.222 83.9092 97.8019 84.3931 95.5854 85.4029C93.3688 86.4128 91.4156 87.9214 89.8784 89.8109C88.612 91.5739 87.6403 93.531 87.0013 95.6056C85.3264 99.7524 83.8946 124.484 83.8946 130.792C83.8946 130.792 60.0945 126.173 37.7668 103.318L43.5885 88.0279H25.3534L38.5367 74.0477H15.8442L29.041 60.081H7.49662L31.4858 34.6466C38.8412 27.3652 48.0941 22.2965 58.19 20.018C67.7803 18.3701 70.2521 19.3021 76.1684 21.0581L79.4507 22.0441L80.5988 22.3818L84.7861 23.665C87.5279 24.4071 90.4121 24.4489 93.1742 23.7866C96.9262 22.8146 100.907 23.2971 104.318 25.1373C105.836 26.0044 107.128 27.2169 108.091 28.6765C109.053 30.1362 109.658 31.802 109.856 33.5389C110.032 35.0704 110.564 36.5393 111.411 37.8272C112.258 39.1152 113.396 40.1864 114.732 40.9545C118.762 43.1618 122.974 45.0191 127.321 46.5061C130.387 47.6677 133.453 48.9914 136.493 50.1801C138.002 50.7525 139.334 51.7122 140.356 52.9626C141.224 54.0064 141.744 55.2959 141.842 56.6502C142.031 59.3516 142.341 62.0531 142.476 64.7546C142.688 68.5209 141.861 72.2729 140.086 75.6011V75.6416Z" fill="black"/>
</svg>

<svg width="150" height="151" fill="none" xmlns="http://www.w3.org/2000/svg"><path fill="#fff" d="M0 0h150v150H0z"/><path d="M0 0v150.014h150V0H0zm140.086 75.642c-.649 1.242-1.351 2.417-1.973 3.66a4.643 4.643 0 01-4.781 2.702 3.243 3.243 0 00-2.094.675 141.587 141.587 0 01-5.646 3.552 9.897 9.897 0 01-8.577.46 40.131 40.131 0 00-14.359-2.702 15.803 15.803 0 00-12.778 5.822 20.048 20.048 0 00-2.877 5.795c-1.675 4.146-3.106 28.878-3.106 35.186 0 0-23.8-4.619-46.128-27.474l5.822-15.29H25.353l13.184-13.98H15.844L29.041 60.08H7.497l23.989-25.434A55.245 55.245 0 0158.19 20.018c9.59-1.648 12.062-.716 17.978 1.04l3.283.986 1.148.338 4.187 1.283a16.97 16.97 0 008.388.122 15.358 15.358 0 0111.144 1.35 11.127 11.127 0 015.538 8.402 9.85 9.85 0 004.876 7.416 80.33 80.33 0 0012.589 5.551c3.066 1.162 6.132 2.485 9.172 3.674a9.207 9.207 0 013.863 2.783 6.502 6.502 0 011.486 3.687c.189 2.702.499 5.403.634 8.105a20.59 20.59 0 01-2.39 10.846v.04z" fill="#000"/></svg>
